src/assets/svg/contact-form.svg

<svg width="610" height="396" fill="none" xmlns="http://www.w3.org/2000/svg"><path d="M148.954 120.657c-21.789-12.743-50.825-15.406-71.813-1.383a116.297 116.297 0 0 1 63.42 48.513c5.657 8.948 11.018 19.49 21.064 22.827 6.251 2.076 13.229.796 19.164-2.061 5.935-2.857 11.024-7.173 16.041-11.442l1.602-.37c-12.123-22.14-27.689-43.34-49.478-56.084z" fill="#F0F0F0"/><path d="M77.373 119.75a99.402 99.402 0 0 1 59.451 14.358 42.81 42.81 0 0 1 10.35 8.53 24.55 24.55 0 0 1 5.336 11.769c.73 4.023 1.01 8.223 2.706 11.998a15.021 15.021 0 0 0 9.302 8.04c5.017 1.648 10.327 1.396 15.512.968 5.756-.475 11.728-1.059 17.24 1.084.667.259 1.031-.792.364-1.051-9.589-3.728-19.875.482-29.723-1.292-4.596-.827-8.97-3.045-11.236-7.298-1.982-3.718-2.275-8.049-2.979-12.129a26.202 26.202 0 0 0-4.788-11.701 39.558 39.558 0 0 0-9.985-8.896 96.435 96.435 0 0 0-27.558-12.211 101.199 101.199 0 0 0-34.207-3.261c-.712.054-.492 1.146.215 1.092z" fill="#000"/><path d="M131.295 130.256a14.914 14.914 0 0 0-5.513-18.508c-.601-.389-1.233.527-.631.916a13.815 13.815 0 0 1 5.093 17.228c-.292.653.761 1.014 1.051.364zM152.409 152.318a28.747 28.747 0 0 1-20.949.139c-.668-.258-1.032.794-.364 1.051a29.9 29.9 0 0 0 21.798-.189c.665-.268.176-1.267-.485-1.001zM100.443 120.35a8.447 8.447 0 0 1-5.183 6.108c-.669.259-.179 1.258.485 1.001a9.464 9.464 0 0 0 5.749-6.745.574.574 0 0 0-.343-.707.555.555 0 0 0-.708.343z" fill="#000"/><path d="M68.441 204.294c.422-.15.844-.3 1.274-.445a111.305 111.305 0 0 1 17.451-4.549c.458-.087.922-.169 1.381-.244a117.206 117.206 0 0 1 43.141.95 113.804 113.804 0 0 1 16.6 4.847c7.461 2.811 15.328 6.451 23.054 6.627.806.028 1.612.005 2.415-.067l25.002-32.689c.02-.103.047-.2.067-.303l1.058-1.26c-.272-.124-.556-.247-.827-.372-.157-.073-.32-.138-.477-.211-.106-.046-.213-.092-.307-.14a1.881 1.881 0 0 0-.099-.04c-.093-.048-.185-.083-.271-.125a365.35 365.35 0 0 0-4.781-2.049c-.007-.005-.007-.005-.02-.004-12.213-5.097-24.96-9.219-37.926-11.276-.39-.062-.788-.129-1.189-.176a108.542 108.542 0 0 0-17.681-1.241c-3.24.048-6.475.26-9.694.635a79.861 79.861 0 0 0-24.027 6.778c-15.157 6.99-27.91 18.749-33.712 34.171-.148.395-.291.782-.432 1.183z" fill="#F0F0F0"/><path d="M68.912 204.538a99.406 99.406 0 0 1 56.113-24.329 42.814 42.814 0 0 1 13.4.579 24.552 24.552 0 0 1 11.345 6.184c3.005 2.773 5.758 5.957 9.385 7.951a15.017 15.017 0 0 0 12.267.819c4.998-1.705 9.086-5.104 12.969-8.566 4.31-3.845 8.726-7.907 14.417-9.515.689-.195.347-1.253-.342-1.059-9.9 2.798-15.579 12.351-24.51 16.865-4.167 2.106-8.995 2.969-13.365.938-3.821-1.776-6.662-5.057-9.681-7.891a26.18 26.18 0 0 0-10.868-6.46 39.553 39.553 0 0 0-13.328-1.092 96.42 96.42 0 0 0-29.355 6.843 101.164 101.164 0 0 0-29.276 17.991c-.536.472.297 1.211.83.742h-.001z" fill="#000"/><path d="M118.291 180.463a14.916 14.916 0 0 0-15.545-11.459.557.557 0 0 0 .048 1.112 13.811 13.811 0 0 1 14.438 10.688c.161.698 1.219.352 1.059-.341zM148.432 185.365a28.74 28.74 0 0 1-16.643 12.723c-.688.198-.346 1.256.342 1.059a29.898 29.898 0 0 0 17.291-13.274c.37-.615-.622-1.119-.99-.508zM87.693 191.128a8.443 8.443 0 0 1-.46 7.997c-.378.609.614 1.113.99.507a9.459 9.459 0 0 0 .529-8.846.575.575 0 0 0-.7-.358.559.559 0 0 0-.359.7z" fill="#000"/><path d="M536.209 320.127c-2.557-25.112-17.527-50.133-41.229-58.815a116.298 116.298 0 0 1-1.784 79.828c-3.891 9.845-9.244 20.39-6.015 30.472 2.009 6.274 7.157 11.154 12.964 14.263 5.808 3.109 12.294 4.673 18.701 6.208l1.243 1.076c10.733-22.847 18.676-47.92 16.12-73.032z" fill="#F0F0F0"/><path d="M495.733 261.781a99.401 99.401 0 0 1 23.459 56.481 42.784 42.784 0 0 1-.785 13.39 24.546 24.546 0 0 1-6.359 11.248c-2.818 2.962-6.045 5.665-8.095 9.261a15.028 15.028 0 0 0-1.007 12.253c1.627 5.024 4.962 9.164 8.365 13.099 3.777 4.37 7.77 8.848 9.29 14.563.184.692 1.248.366 1.064-.325-2.644-9.943-12.109-15.768-16.484-24.768-2.042-4.199-2.83-9.039-.732-13.378 1.835-3.793 5.16-6.583 8.04-9.558a26.198 26.198 0 0 0 6.627-10.767 39.578 39.578 0 0 0 1.298-13.31 96.47 96.47 0 0 0-6.389-29.457 101.173 101.173 0 0 0-17.538-29.55c-.463-.543-1.215.278-.754.818z" fill="#000"/><path d="M519.043 311.525a14.913 14.913 0 0 0 11.698-15.366.559.559 0 0 0-.571-.521.557.557 0 0 0-.542.551 13.805 13.805 0 0 1-10.91 14.272c-.7.15-.371 1.213.325 1.064zM513.676 341.587a28.745 28.745 0 0 1-12.464-16.837c-.187-.692-1.251-.366-1.064.325a29.897 29.897 0 0 0 13.006 17.494c.608.38 1.127-.605.522-.982zM508.852 280.766a8.44 8.44 0 0 1-7.989-.584c-.603-.387-1.122.597-.522.982a9.457 9.457 0 0 0 8.837.666.576.576 0 0 0 .369-.695.56.56 0 0 0-.695-.369z" fill="#000"/><path d="M422.185 304.42c.37.252.74.505 1.11.767a111.119 111.119 0 0 1 13.964 11.412c.341.317.681.644 1.012.971a117.205 117.205 0 0 1 24.672 35.402 113.816 113.816 0 0 1 5.873 16.266c2.13 7.683 3.828 16.183 8.242 22.526.453.667.947 1.306 1.479 1.912l41.144.916c.094-.044.189-.08.284-.125l1.641.112c-.06-.292-.128-.594-.187-.887-.034-.17-.077-.34-.111-.51-.025-.113-.051-.226-.068-.33a1.807 1.807 0 0 0-.025-.104c-.017-.103-.043-.198-.06-.292a355.82 355.82 0 0 0-1.164-5.069c0-.01 0-.01-.009-.019-3.085-12.87-7.272-25.595-13.257-37.28-.18-.352-.359-.713-.558-1.065a108.63 108.63 0 0 0-9.424-15.011 95.977 95.977 0 0 0-6.23-7.455 79.84 79.84 0 0 0-19.642-15.408c-14.583-8.12-31.6-11.486-47.477-7.078-.406.113-.803.227-1.209.349z" fill="#F0F0F0"/><path d="M422.266 304.944a99.411 99.411 0 0 1 52.737 30.973 42.817 42.817 0 0 1 7.434 11.164 24.548 24.548 0 0 1 1.695 12.81c-.467 4.062-1.416 8.163-.888 12.268a15.032 15.032 0 0 0 6.573 10.39c4.324 3.032 9.48 4.329 14.566 5.422 5.647 1.215 11.531 2.386 16.185 6.034.564.442 1.217-.459.654-.9-8.097-6.347-19.162-5.299-28.073-9.851-4.159-2.124-7.702-5.514-8.639-10.241-.819-4.133.156-8.363.665-12.472a26.2 26.2 0 0 0-1.192-12.587 39.552 39.552 0 0 0-6.977-11.408 96.439 96.439 0 0 0-22.836-19.673 101.153 101.153 0 0 0-31.794-13.036c-.698-.154-.803.954-.11 1.107z" fill="#000"/><path d="M470.827 330.628a14.912 14.912 0 0 0 .088-19.312c-.462-.546-1.333.148-.869.694a13.81 13.81 0 0 1-.119 17.964c-.469.541.434 1.192.9.654zM484.64 357.862a28.744 28.744 0 0 1-20.089-5.939c-.566-.44-1.219.461-.654.9a29.898 29.898 0 0 0 20.917 6.138c.715-.063.536-1.162-.174-1.099zM444.17 312.204a8.432 8.432 0 0 1-6.73 4.344c-.715.054-.536 1.153.174 1.099a9.465 9.465 0 0 0 7.457-4.789.575.575 0 0 0-.124-.777.558.558 0 0 0-.777.123z" fill="#000"/><path d="M292.285 71.112a9.442 9.442 0 0 0-10.783 9.66l-31.313 12.053 14.187 10.137 27.56-13a9.49 9.49 0 0 0 8.547-9.27 9.492 9.492 0 0 0-8.198-9.58z" fill="#FFB6B6"/><path d="m173.39 65.195-5.298 9.631a27.66 27.66 0 0 0 9.388 15.595c8.111 6.84 50.519 32.317 50.519 32.317l53.538-26.878-9.366-12.445L230.139 97.5 206.427 75.11l-33.037-9.915z" fill="#FF9797"/><path d="m168.525 216.222 5.536 1.043-33.381 177.158-5.536-1.043 33.381-177.158zM223.628 393.38l-5.536 1.043-33.381-177.158 5.536-1.043 33.381 177.158z" fill="#CACACA"/><path d="M183.241 224.568c-23.076 0-41.783-6.095-41.783-13.614 0-7.519 18.707-13.615 41.783-13.615s41.782 6.096 41.782 13.615-18.706 13.614-41.782 13.614z" fill="#CACACA"/><path d="m271.984 383.265 11.511-.001 5.476-44.4-16.989.001.002 44.4z" fill="#FFB6B6"/><path d="m269.048 394.423 37.117-.001v-.47a14.45 14.45 0 0 0-14.447-14.447h-.001l-22.669.001v14.917z" fill="#2F2E41"/><path d="m216.103 322.852 10.055 5.605 26.403-36.116-14.84-8.272-21.618 38.783z" fill="#FFB6B6"/><path d="m208.106 331.168 32.42 18.072.229-.41a14.45 14.45 0 0 0-5.584-19.653h-.001l-19.801-11.038-7.263 13.029zM150.722 177.668s-5.582 17.292 28.663 39.161l44.104 43.948 45.827 109.62 27.206-12.197-41.839-111.679-24.466-42.838-.71-23.245-6.018-16.385-43.66-15.492-29.107 29.107z" fill="#2F2E41"/><path d="m240.269 322.134 45.519-68.628a16.3 16.3 0 0 0-2.183-20.639l-46.089-45.083-7.814-7.815h-17.487l8.2 30.254 28.447 32.246-32.886 58.193 24.293 21.472z" fill="#2F2E41"/><path d="m206.815 83.64-13.716-19.63-31.34-2.52s-26.943 25.384-22.041 58.809c4.902 33.426 9.596 66.289 9.596 66.289s48.825-34.741 74.176-22.535L206.815 83.64z" fill="#FF9797"/><path d="M216.127 186.047a9.438 9.438 0 0 0-8.509-7.746 9.437 9.437 0 0 0-4.054.551l-21.295-25.929-5.156 16.656 21.012 22.069a9.497 9.497 0 0 0 11.489 5.196 9.494 9.494 0 0 0 6.513-10.797z" fill="#FFB6B6"/><path d="m189.318 184.362 9.379-13.547-26.632-35.51 13.72-29.399-.999-34.97-11.338-2.094-.14.07a27.859 27.859 0 0 0-12.074 14.065c-2.829 7.07-9.142 33.613-12.654 48.804a17.713 17.713 0 0 0 4.762 16.604l35.976 35.977z" fill="#FF9797"/><path d="M165.41 46.83c-6.104-10.267-2.728-23.537 7.539-29.64 10.268-6.104 23.539-2.729 29.642 7.539 6.103 10.267 2.728 23.538-7.54 29.641-10.267 6.104-23.538 2.728-29.641-7.54z" fill="#FFB6B6"/><path d="M170.173 28.014c.229 3.14-2.717 14.72-2.717 14.72-2.158-3.63 1.233 8.437 1.233 8.437-35.427-24.694-7.435-49.504 3.515-47.298-.228-3.14 8.702-1.897 8.702-1.897 3.403-5.299 10.86 1.735 10.86 1.735l-1.439-2.42c5.79 1.472 11.513 19.367 11.513 19.367-1.964 7.72-31.896 4.216-31.667 7.356z" fill="#2F2E41"/><path d="M1.118 395.309h607.767a1.118 1.118 0 0 0 0-2.236H1.118A1.12 1.12 0 0 0 0 394.191a1.116 1.116 0 0 0 1.118 1.118z" fill="#CACACA"/></svg>

<svg width="610" height="396" viewBox="0 0 610 396" fill="none" xmlns="http://www.w3.org/2000/svg">
<path d="M148.954 120.657C127.165 107.914 98.1295 105.251 77.1415 119.274C103.344 127.454 125.809 144.638 140.561 167.787C146.218 176.735 151.579 187.277 161.625 190.614C167.876 192.69 174.854 191.41 180.789 188.553C186.724 185.696 191.813 181.38 196.83 177.111L198.432 176.741C186.309 154.601 170.743 133.401 148.954 120.657Z" fill="#F0F0F0"/>
<path d="M77.3734 119.75C98.2067 118.169 119.008 123.193 136.824 134.108C140.701 136.39 144.194 139.269 147.174 142.638C149.972 146.014 151.814 150.078 152.51 154.407C153.24 158.43 153.52 162.63 155.216 166.405C156.112 168.325 157.404 170.034 159.007 171.419C160.61 172.805 162.488 173.836 164.518 174.445C169.535 176.093 174.845 175.841 180.03 175.413C185.786 174.938 191.758 174.354 197.27 176.497C197.937 176.756 198.301 175.705 197.634 175.446C188.045 171.718 177.759 175.928 167.911 174.154C163.315 173.327 158.941 171.109 156.675 166.856C154.693 163.138 154.4 158.807 153.696 154.727C153.079 150.494 151.435 146.477 148.908 143.026C146.108 139.515 142.732 136.507 138.923 134.13C130.434 128.64 121.134 124.52 111.365 121.919C100.232 118.89 88.6628 117.787 77.1578 118.658C76.4457 118.712 76.6659 119.804 77.3733 119.75L77.3734 119.75Z" fill="black"/>
<path d="M131.295 130.256C132.72 127.019 132.948 123.38 131.939 119.989C130.929 116.599 128.747 113.678 125.782 111.748C125.181 111.359 124.549 112.275 125.151 112.664C127.915 114.457 129.947 117.178 130.881 120.337C131.815 123.496 131.589 126.885 130.244 129.892C129.952 130.545 131.005 130.906 131.295 130.256H131.295Z" fill="black"/>
<path d="M152.409 152.318C145.692 154.998 138.212 155.047 131.46 152.457C130.792 152.199 130.428 153.251 131.096 153.508C138.127 156.19 145.91 156.123 152.894 153.319C153.559 153.051 153.07 152.052 152.409 152.318V152.318Z" fill="black"/>
<path d="M100.443 120.35C100.152 121.717 99.5266 122.991 98.6219 124.057C97.7173 125.124 96.562 125.948 95.2599 126.458C94.5914 126.717 95.0811 127.716 95.7452 127.459C97.1813 126.889 98.456 125.977 99.4581 124.801C100.46 123.626 101.159 122.222 101.494 120.714C101.537 120.575 101.526 120.424 101.462 120.293C101.398 120.161 101.287 120.059 101.151 120.007C101.011 119.959 100.859 119.968 100.726 120.033C100.594 120.097 100.492 120.211 100.443 120.35V120.35Z" fill="black"/>
<path d="M68.4412 204.294C68.8633 204.144 69.2854 203.994 69.7151 203.849C75.3994 201.863 81.2357 200.342 87.1664 199.3C87.6237 199.213 88.0883 199.131 88.5471 199.056C102.862 196.7 117.49 197.022 131.688 200.006C137.336 201.198 142.886 202.819 148.288 204.853C155.749 207.664 163.616 211.304 171.342 211.48C172.148 211.508 172.954 211.485 173.757 211.413L198.759 178.724C198.779 178.621 198.806 178.524 198.826 178.421L199.884 177.161C199.612 177.037 199.328 176.914 199.057 176.789C198.9 176.716 198.737 176.651 198.58 176.578C198.474 176.532 198.367 176.486 198.273 176.438C198.238 176.423 198.202 176.408 198.174 176.398C198.081 176.35 197.989 176.315 197.903 176.273C196.317 175.58 194.724 174.897 193.122 174.224C193.115 174.219 193.115 174.219 193.102 174.22C180.889 169.123 168.142 165.001 155.176 162.944C154.786 162.882 154.388 162.815 153.987 162.768C148.137 161.873 142.224 161.458 136.306 161.527C133.066 161.575 129.831 161.787 126.612 162.162C118.297 163.148 110.189 165.435 102.585 168.94C87.4282 175.93 74.675 187.689 68.873 203.111C68.7249 203.506 68.5819 203.893 68.4412 204.294Z" fill="#F0F0F0"/>
<path d="M68.912 204.538C84.5948 190.733 104.229 182.22 125.025 180.209C129.494 179.697 134.016 179.892 138.425 180.788C142.691 181.799 146.608 183.935 149.77 186.972C152.775 189.745 155.528 192.929 159.155 194.923C161.026 195.917 163.087 196.503 165.201 196.644C167.315 196.785 169.435 196.478 171.422 195.742C176.42 194.037 180.508 190.638 184.391 187.176C188.701 183.331 193.117 179.269 198.808 177.661C199.497 177.466 199.155 176.408 198.466 176.602C188.566 179.4 182.887 188.953 173.956 193.467C169.789 195.573 164.961 196.436 160.591 194.405C156.77 192.629 153.929 189.348 150.91 186.514C147.869 183.505 144.138 181.287 140.042 180.054C135.693 178.936 131.186 178.567 126.714 178.962C116.631 179.69 106.725 181.999 97.3589 185.805C86.6457 190.089 76.7441 196.173 68.0828 203.796C67.5469 204.268 68.3797 205.007 68.9121 204.538H68.912Z" fill="black"/>
<path d="M118.291 180.463C117.48 177.02 115.471 173.977 112.624 171.878C109.776 169.778 106.275 168.76 102.746 169.004C102.602 169.015 102.468 169.082 102.373 169.19C102.277 169.298 102.227 169.439 102.233 169.583C102.24 169.727 102.301 169.863 102.406 169.962C102.511 170.062 102.65 170.117 102.794 170.116C106.08 169.882 109.341 170.831 111.989 172.792C114.636 174.752 116.496 177.594 117.232 180.804C117.393 181.502 118.451 181.156 118.291 180.463V180.463Z" fill="black"/>
<path d="M148.432 185.365C144.682 191.549 138.74 196.092 131.789 198.088C131.101 198.286 131.443 199.344 132.131 199.147C139.36 197.056 145.534 192.316 149.422 185.873C149.792 185.258 148.8 184.754 148.432 185.365V185.365Z" fill="black"/>
<path d="M87.6932 191.128C88.2846 192.395 88.5522 193.789 88.4717 195.185C88.3913 196.58 87.9654 197.934 87.2324 199.125C86.8546 199.734 87.8473 200.238 88.2225 199.632C89.0263 198.313 89.4948 196.817 89.5871 195.275C89.6794 193.733 89.3927 192.192 88.752 190.786C88.7027 190.649 88.6029 190.535 88.4728 190.468C88.3428 190.402 88.1922 190.387 88.0518 190.428C87.9118 190.474 87.7956 190.573 87.7285 190.704C87.6613 190.835 87.6487 190.987 87.6932 191.128V191.128Z" fill="black"/>
<path d="M536.209 320.127C533.652 295.015 518.682 269.994 494.98 261.312C503.825 287.298 503.193 315.575 493.196 341.14C489.305 350.985 483.952 361.53 487.181 371.612C489.19 377.886 494.338 382.766 500.145 385.875C505.953 388.984 512.439 390.548 518.846 392.083L520.089 393.159C530.822 370.312 538.765 345.239 536.209 320.127Z" fill="#F0F0F0"/>
<path d="M495.733 261.781C509.294 277.675 517.503 297.438 519.192 318.262C519.636 322.739 519.371 327.257 518.407 331.652C517.33 335.902 515.134 339.786 512.048 342.9C509.23 345.862 506.003 348.565 503.953 352.161C502.931 354.017 502.313 356.068 502.14 358.18C501.966 360.291 502.241 362.416 502.946 364.414C504.573 369.438 507.908 373.578 511.311 377.513C515.088 381.883 519.081 386.361 520.601 392.076C520.785 392.768 521.849 392.442 521.665 391.751C519.021 381.808 509.556 375.983 505.181 366.983C503.139 362.784 502.351 357.944 504.449 353.605C506.284 349.812 509.609 347.022 512.489 344.047C515.544 341.053 517.819 337.356 519.116 333.28C520.301 328.949 520.739 324.448 520.414 319.97C519.841 309.877 517.685 299.937 514.025 290.513C509.907 279.735 503.975 269.741 496.487 260.963C496.024 260.42 495.272 261.241 495.733 261.781V261.781Z" fill="black"/>
<path d="M519.043 311.525C522.499 310.767 525.572 308.806 527.715 305.991C529.858 303.176 530.93 299.691 530.741 296.159C530.731 296.015 530.667 295.88 530.56 295.783C530.454 295.686 530.314 295.634 530.17 295.638C530.026 295.642 529.889 295.702 529.788 295.805C529.687 295.908 529.63 296.045 529.628 296.189C529.811 299.479 528.812 302.725 526.811 305.342C524.81 307.959 521.94 309.774 518.718 310.461C518.018 310.611 518.347 311.674 519.043 311.525V311.525Z" fill="black"/>
<path d="M513.676 341.587C507.551 337.742 503.101 331.73 501.212 324.75C501.025 324.058 499.961 324.384 500.148 325.075C502.127 332.335 506.771 338.582 513.154 342.569C513.762 342.949 514.281 341.964 513.676 341.587H513.676Z" fill="black"/>
<path d="M508.852 280.766C507.576 281.338 506.178 281.584 504.784 281.482C503.39 281.38 502.042 280.933 500.863 280.182C500.26 279.795 499.741 280.779 500.341 281.164C501.647 281.988 503.136 282.48 504.676 282.596C506.217 282.712 507.762 282.449 509.178 281.83C509.316 281.783 509.431 281.685 509.5 281.556C509.568 281.427 509.585 281.276 509.547 281.135C509.503 280.995 509.406 280.877 509.276 280.808C509.146 280.739 508.993 280.724 508.852 280.766V280.766Z" fill="black"/>
<path d="M422.185 304.42C422.555 304.672 422.925 304.925 423.295 305.187C428.251 308.606 432.921 312.423 437.259 316.599C437.6 316.916 437.94 317.243 438.271 317.57C448.615 327.742 456.981 339.746 462.943 352.972C465.31 358.237 467.274 363.675 468.816 369.238C470.946 376.921 472.644 385.421 477.058 391.764C477.511 392.431 478.005 393.07 478.537 393.676L519.681 394.592C519.775 394.548 519.87 394.512 519.965 394.467L521.606 394.579C521.546 394.287 521.478 393.985 521.419 393.692C521.385 393.522 521.342 393.352 521.308 393.182C521.283 393.069 521.257 392.956 521.24 392.852C521.232 392.814 521.223 392.777 521.215 392.748C521.198 392.645 521.172 392.55 521.155 392.456C520.78 390.766 520.392 389.077 519.991 387.387C519.991 387.377 519.991 387.377 519.982 387.368C516.897 374.498 512.71 361.773 506.725 350.088C506.545 349.736 506.366 349.375 506.167 349.023C503.44 343.771 500.288 338.751 496.743 334.012C494.794 331.424 492.714 328.935 490.513 326.557C484.815 320.423 478.186 315.224 470.871 311.149C456.288 303.029 439.271 299.663 423.394 304.071C422.988 304.184 422.591 304.298 422.185 304.42Z" fill="#F0F0F0"/>
<path d="M422.266 304.944C442.663 309.47 461.115 320.307 475.003 335.917C478.052 339.225 480.561 342.992 482.437 347.081C484.136 351.123 484.721 355.546 484.132 359.891C483.665 363.953 482.716 368.054 483.244 372.159C483.546 374.256 484.287 376.266 485.42 378.056C486.553 379.847 488.051 381.378 489.817 382.549C494.141 385.581 499.297 386.878 504.383 387.971C510.03 389.186 515.914 390.357 520.568 394.005C521.132 394.447 521.785 393.546 521.222 393.105C513.125 386.758 502.06 387.806 493.149 383.254C488.99 381.13 485.447 377.74 484.51 373.013C483.691 368.88 484.666 364.65 485.175 360.541C485.811 356.311 485.402 351.989 483.983 347.954C482.322 343.783 479.962 339.925 477.006 336.546C470.472 328.832 462.766 322.193 454.17 316.873C444.393 310.746 433.639 306.337 422.376 303.837C421.678 303.683 421.573 304.791 422.266 304.944H422.266Z" fill="black"/>
<path d="M470.827 330.628C473.13 327.942 474.403 324.526 474.419 320.988C474.435 317.451 473.193 314.023 470.915 311.316C470.453 310.77 469.582 311.464 470.046 312.01C472.172 314.527 473.328 317.72 473.306 321.014C473.284 324.308 472.086 327.486 469.927 329.974C469.458 330.515 470.361 331.166 470.827 330.628Z" fill="black"/>
<path d="M484.64 357.862C477.435 358.48 470.262 356.359 464.551 351.923C463.985 351.483 463.332 352.384 463.897 352.823C469.849 357.429 477.318 359.62 484.814 358.961C485.529 358.898 485.35 357.799 484.64 357.862V357.862Z" fill="black"/>
<path d="M444.17 312.204C443.496 313.429 442.528 314.467 441.353 315.225C440.178 315.983 438.834 316.438 437.44 316.548C436.725 316.602 436.904 317.701 437.614 317.647C439.153 317.518 440.638 317.014 441.938 316.179C443.237 315.345 444.313 314.204 445.071 312.858C445.153 312.737 445.185 312.59 445.163 312.445C445.14 312.301 445.063 312.171 444.947 312.081C444.828 311.995 444.679 311.96 444.533 311.983C444.388 312.006 444.257 312.086 444.17 312.204V312.204Z" fill="black"/>
<path d="M292.285 71.1116C290.919 70.9148 289.526 71.0199 288.205 71.4195C286.884 71.8192 285.666 72.5036 284.638 73.4247C283.61 74.3458 282.797 75.4811 282.255 76.7506C281.713 78.0201 281.456 79.393 281.502 80.7726L250.189 92.8255L264.376 102.962L291.936 89.9619C294.249 89.7308 296.396 88.6594 297.971 86.9509C299.547 85.2423 300.44 83.0152 300.483 80.6917C300.526 78.3682 299.716 76.1096 298.205 74.3439C296.694 72.5782 294.587 71.4282 292.285 71.1116H292.285Z" fill="#FFB6B6"/>
<path d="M173.39 65.1948L168.092 74.8262C169.372 80.9349 172.681 86.4311 177.48 90.4213C185.591 97.2616 227.999 122.738 227.999 122.738L281.537 95.8602L272.171 83.4147L230.139 97.501L206.427 75.11L173.39 65.1948Z" fill="#FF9797"/>
<path d="M168.525 216.222L174.061 217.265L140.68 394.423L135.144 393.38L168.525 216.222Z" fill="#CACACA"/>
<path d="M223.628 393.38L218.092 394.423L184.711 217.265L190.247 216.222L223.628 393.38Z" fill="#CACACA"/>
<path d="M183.241 224.568C160.165 224.568 141.458 218.473 141.458 210.954C141.458 203.435 160.165 197.339 183.241 197.339C206.317 197.339 225.023 203.435 225.023 210.954C225.023 218.473 206.317 224.568 183.241 224.568Z" fill="#CACACA"/>
<path d="M271.984 383.265L283.495 383.264L288.971 338.864L271.982 338.865L271.984 383.265Z" fill="#FFB6B6"/>
<path d="M269.048 394.423L306.165 394.422V393.952C306.165 390.121 304.643 386.446 301.933 383.737C299.224 381.028 295.55 379.506 291.718 379.505H291.717L269.048 379.506L269.048 394.423Z" fill="#2F2E41"/>
<path d="M216.103 322.852L226.158 328.457L252.561 292.341L237.721 284.069L216.103 322.852Z" fill="#FFB6B6"/>
<path d="M208.106 331.168L240.526 349.24L240.755 348.83C242.62 345.483 243.08 341.533 242.033 337.847C240.986 334.162 238.517 331.043 235.171 329.177L235.17 329.177L215.369 318.139L208.106 331.168Z" fill="#2F2E41"/>
<path d="M150.722 177.668C150.722 177.668 145.14 194.96 179.385 216.829L223.489 260.777L269.316 370.397L296.522 358.2L254.683 246.521L230.217 203.683L229.507 180.438L223.489 164.053L179.829 148.561L150.722 177.668Z" fill="#2F2E41"/>
<path d="M240.269 322.134L285.788 253.506C287.879 250.348 288.804 246.56 288.406 242.794C288.008 239.028 286.31 235.518 283.605 232.867L237.516 187.784L229.702 179.969H212.215L220.415 210.223L248.862 242.469L215.976 300.662L240.269 322.134Z" fill="#2F2E41"/>
<path d="M206.815 83.64L193.099 64.0106L161.759 61.4893C161.759 61.4893 134.816 86.874 139.718 120.299C144.62 153.725 149.314 186.588 149.314 186.588C149.314 186.588 198.139 151.847 223.49 164.053L206.815 83.64Z" fill="#FF9797"/>
<path d="M216.127 186.047C215.884 184.688 215.346 183.399 214.551 182.271C213.756 181.143 212.723 180.202 211.525 179.517C210.327 178.831 208.994 178.416 207.618 178.301C206.243 178.186 204.859 178.374 203.564 178.852L182.269 152.923L177.113 169.579L198.125 191.648C199.072 193.77 200.765 195.471 202.882 196.429C205 197.386 207.395 197.534 209.614 196.844C211.833 196.153 213.722 194.673 214.922 192.683C216.122 190.693 216.551 188.332 216.127 186.047V186.047Z" fill="#FFB6B6"/>
<path d="M189.318 184.362L198.697 170.815L172.065 135.305L185.785 105.906L184.786 70.9366L173.448 68.8423L173.308 68.9129C167.796 72.0855 163.535 77.0483 161.234 82.9767C158.405 90.0472 152.092 116.59 148.58 131.781C147.89 134.725 147.966 137.797 148.799 140.703C149.633 143.61 151.197 146.255 153.342 148.385L189.318 184.362Z" fill="#FF9797"/>
<path d="M165.41 46.8308C159.306 36.5635 162.682 23.2925 172.949 17.1892C183.217 11.0859 196.488 14.4615 202.591 24.7288C208.694 34.9961 205.319 48.267 195.051 54.3704C184.784 60.4737 171.513 57.0981 165.41 46.8308Z" fill="#FFB6B6"/>
<path d="M170.173 28.0143C170.402 31.1547 167.456 42.7345 167.456 42.7345C165.298 39.1032 168.689 51.1713 168.689 51.1713C133.262 26.4768 161.254 1.66739 172.204 3.87279C171.976 0.732371 180.906 1.97647 180.906 1.97647C184.309 -3.32258 191.766 3.71144 191.766 3.71144L190.327 1.29055C196.117 2.76326 201.84 20.6576 201.84 20.6576C199.876 28.3775 169.944 24.8739 170.173 28.0143Z" fill="#2F2E41"/>
<path d="M1.11801 395.309H608.885C609.181 395.308 609.465 395.19 609.674 394.98C609.883 394.771 610 394.487 610 394.191C610 393.895 609.883 393.611 609.674 393.401C609.465 393.192 609.181 393.074 608.885 393.073H1.11801C0.8215 393.073 0.537102 393.191 0.327441 393.4C0.11778 393.61 -1.72398e-05 393.894 -1.72398e-05 394.191C-1.72398e-05 394.487 0.11778 394.772 0.327441 394.981C0.537102 395.191 0.8215 395.309 1.11801 395.309Z" fill="#CACACA"/>
</svg>
